X: 21597
T: Killarney Boys Of Pleasure, The
R: reel
M: 4/4
K: Aminor
|:A3G A2Bd|eBdB GABd|e3g a3g|(3efg dB GABG|
A3G A2 (3Bcd|eBdB GABd|e3g a3g|1 (3efg dB BAAG:|2 (3efg dB BA A2||
|:ea a2 ea a2|gedB GABd|gbba b3a|gedB GA (3Bcd|
ea a2 ea a2|gedB GABd|gbba g3d|1 (3efg dB BA A2:|2 (3efg dB BAAG|

